svg/material-icons/calculate/materialicons/20px.svg

<svg xmlns="http://www.w3.org/2000/svg" width="20" height="20" viewBox="0 0 20 20"><path d="M15 4H5c-.55 0-1 .45-1 1v10c0 .55.45 1 1 1h10c.55 0 1-.45 1-1V5c0-.55-.45-1-1-1zM6 7.27h3v1H6v-1zm4 5.23H8.5V14h-1v-1.5H6v-1h1.5V10h1v1.5H10v1zm4 .75h-3v-1h3v1zm0-1.5h-3v-1h3v1zm.27-2.92-.71.71-1.06-1.07-1.06 1.06-.71-.71 1.06-1.06-1.06-1.06.71-.7 1.06 1.06L13.56 6l.71.71-1.06 1.06 1.06 1.06z"/></svg>

<svg xmlns="http://www.w3.org/2000/svg" enable-background="new 0 0 20 20" height="20" viewBox="0 0 20 20" width="20"><g><rect fill="none" height="20" width="20"/></g><g><g><path d="M15,4H5C4.45,4,4,4.45,4,5v10c0,0.55,0.45,1,1,1h10c0.55,0,1-0.45,1-1V5C16,4.45,15.55,4,15,4z M6,7.27h3v1H6V7.27z M10,12.5H8.5V14h-1v-1.5H6v-1h1.5V10h1v1.5H10V12.5z M14,13.25h-3v-1h3V13.25z M14,11.75h-3v-1h3V11.75z M14.27,8.83l-0.71,0.71 L12.5,8.47l-1.06,1.06l-0.71-0.71l1.06-1.06l-1.06-1.06L11.44,6l1.06,1.06L13.56,6l0.71,0.71l-1.06,1.06L14.27,8.83z"/></g></g></svg>
